!!!!SEGMENT: pl-kk--kk-i-356--011-002_porta-costanzo--beata-dei-genetrix-beata-quae-credidit.krn
!!!cenid: 17xx:1956
!!!COM: Porta, Costanzo
!!!COM-rismid: pe20000261
!!!CDT: ~1528-1601/05/19
!!!CNT: Italian
!!!OPR: Beata Dei Genetrix
!!!OTL: Beata quae credidit
!!!OMV: 002
!!!PDT:
!!!AGN: Sacred
!!!SMS-siglum: PL-Kk
!!!SMS-shelfmark: Kk.I.356
!!!SMS-shelfwork: 011-002 M
!!!SMS-variant:
!!!SMS-altvar:
!!!NIFC-rismid: 1001142097
!!!URL-scan: http://repozytorium.nifc.pl/skany/pl-kk-nut--i-356
!!!ONB-nifc: UWAGA: tylko partia basu.
!!!key:
**kern	**text
*Iempty	*
*I"Baſso.	*
*I'B	*
*clefC4	*
*k[]	*
*c:	*
*M2/1	*
*met(C|)	*
=1-	=1-
!LO:TX:b:t=2da\npars	!
00r	.
=2-	=2-
.	.
=3-	=3-
2r	.
!LO:TX:a:t=P:problem=kreska pseudotaktowa	!
2G/	Be-
1c	-a-
=4-	=4-
*2\right	*
2A\	-ta
2c\	quae
2B\	cre-
2A\	-di-
=5-	=5-
!LO:TX:t=P:problem=poprawka kopisty	!
[>2G/	-dit
2G/]	.
!LO:LB:g=original	!
0r	.
=6-	=6-
1r	.
=7-	=7-
2r	.
1d	quo-
2d\	-ni-
=8-	=8-
2e\	-am
!LO:TX:a:t=P:problem=kreska pseudotaktowa	!
2B\	per-
2c\	-fe-
2d\	-cta
=9-	=9-
2e\	S(un)t
1c	om-
2c\	-ni-
=10-	=10-
!LO:TX:a:t=P:problem=kreska pseudotaktowa	!
1A	-a
00r	.
=11-	=11-
.	.
=12-	=12-
1r	.
2r	.
2G/	quae
=13-	=13-
2G/	di-
2G/	-cta
!LO:TX:a:t=P:problem=kreska pseudotaktowa	!
1c	s(un)t
=14-	=14-
1c	Ej-
1G	.
=15-	=15-
!LO:TX:a:t=P:problem=kreska pseudotaktowa	!
1D	.
0A	-a
=16-	=16-
2.G/	Do-
4G/	-mi-
=17-	=17-
!LO:TX:a:t=P:problem=kreska pseudotaktowa	!
1A	-no
!LO:TX:a:t=P:problem=kreska pseudotaktowa	!
1r	.
=18-	=18-
2.F/	ho-
4F/	-di-
2G/	-e
1A	gen-
!LO:LB:g=original	!
=19-	=19-
1c	-it
2.C/	ho-
=20-	=20-
4C/	-di-
2D/	-e
1E	ge-
=21-	=21-
2F/	-nu-
2G,</	-it
2G/	Sal-
2A/	-va-
=22-	=22-
1F	-to-
!LO:TX:a:t=P:problem=kreska pseudotaktowa	!
2E/	-rem
2.A/	sae-
=23-	=23-
4A/	-cu-
!LO:TX:a:t=P:problem=kreska pseudotaktowa	!
1G	-li
00r	.
=24-	=24-
.	.
=25-	=25-
0r	.
=26-	=26-
2r	.
=27-	=27-
2.D/	ho-
4D/	-di-
2E/	-e
1F	ge-
=28-	=28-
2G/	-nu-
1A	-it
=29-	=29-
0r	.
=30-	=30-
1r	.
2r	.
2.F/	ho-
=31-	=31-
4F/	-di-
2G/	-e
2.A/	ge-
4B/	-nu-
=32-	=32-
!LO:TX:a:t=P:problem=kreska pseudotaktowa	!
1c	-it
2r	.
2d\	Sal-
=33-	=33-
2e\	-va-
!LO:LB:g=original	!
!LO:TX:a:t=P:problem=urwana kartka	!
1c	-[to]-
!LO:TX:a:t=P:problem=kreska pseudotaktowa	!
2B\	-rem
=34-	=34-
1.c	sae-
2d\	-cu-
=35-	=35-
1c	-li
1F	Sal-
=36-	=36-
1C	-va-
1G	-to-
=37-	=37-
2C/	-rem
1C	sae-
2C/	-cu-
=38-	=38-
00G;/	-li!
==	==
*-	*-
!!!RDF**kern: > = above
!!!RDF**kern: < = below
!!!AIN: 1 empty
!!!ENC: Marta Lawrence
!!!END: 2021-02-23
!!!ENC: Marcin Jachim
!!!END: 2021-02-06
